docs/assets/img/details/btnIcons/camera.svg

<?xml version="1.0" encoding="UTF-8"?>
<svg width="21px" height="18px" viewBox="0 0 21 18" version="1.1" xmlns="http://www.w3.org/2000/svg" xmlns:xlink="http://www.w3.org/1999/xlink">
    <title>camera</title>
    <g id="Welcome" stroke="none" stroke-width="1" fill="none" fill-rule="evenodd">
        <g id="lpw-featured-development-detailed-page-1.0" transform="translate(-1144.000000, -159.000000)" fill="#ffffff" fill-rule="nonzero">
            <g id="camera" transform="translate(1144.000000, 159.000000)">
                <path d="M20.2916865,2.67228163 C19.8726841,2.22350151 19.2940618,1.95831325 18.6356295,1.95831325 L15.3235154,1.95831325 L15.3235154,1.91751506 C15.3235154,1.40753765 15.1239905,0.917959337 14.7847981,0.591573795 C14.4456057,0.244789157 13.9866983,0.0407981928 13.487886,0.0407981928 L7.50213777,0.0407981928 C6.98337292,0.0407981928 6.52446556,0.244789157 6.18527316,0.591573795 C5.84608076,0.938358434 5.64655582,1.40753765 5.64655582,1.91751506 L5.64655582,1.95831325 L2.3543943,1.95831325 C1.695962,1.95831325 1.11733967,2.22350151 0.698337292,2.67228163 C0.279334917,3.10066265 2.84217094e-14,3.71263554 2.84217094e-14,4.36540663 L2.84217094e-14,14.5241566 C2.84217094e-14,15.1973268 0.259382423,15.7889006 0.698337292,16.2172816 C1.11733967,16.6456627 1.71591449,16.93125 2.3543943,16.93125 L18.6356295,16.93125 C19.2940618,16.93125 19.8726841,16.6660617 20.2916865,16.2172816 C20.7106888,15.7889006 20.9900238,15.1769277 20.9900238,14.5241566 L20.9900238,4.36540663 C20.9900238,3.69223645 20.7306413,3.10066265 20.2916865,2.67228163 Z M19.9524941,14.5241566 L19.9325416,14.5241566 C19.9325416,14.8913404 19.7928741,15.2177259 19.5534442,15.4625151 C19.3140143,15.7073042 18.9947743,15.8500979 18.6356295,15.8500979 L2.3543943,15.8500979 C1.99524941,15.8500979 1.6760095,15.7073042 1.43657957,15.4625151 C1.19714964,15.2177259 1.05748219,14.8913404 1.05748219,14.5241566 L1.05748219,4.36540663 C1.05748219,3.99822289 1.19714964,3.67183735 1.43657957,3.42704819 C1.6760095,3.18225904 1.99524941,3.03946536 2.3543943,3.03946536 L6.20522565,3.03946536 C6.50451306,3.03946536 6.74394299,2.7946762 6.74394299,2.48868976 L6.74394299,1.89711596 C6.74394299,1.6727259 6.82375297,1.46873494 6.96342043,1.32594127 C7.10308789,1.18314759 7.30261283,1.1015512 7.52209026,1.1015512 L13.487886,1.1015512 C13.7073634,1.1015512 13.9068884,1.18314759 14.0465558,1.32594127 C14.1862233,1.46873494 14.2660333,1.6727259 14.2660333,1.89711596 L14.2660333,2.48868976 C14.2660333,2.7946762 14.5054632,3.03946536 14.8047506,3.03946536 L18.6555819,3.03946536 C19.0147268,3.03946536 19.3339667,3.18225904 19.5733967,3.42704819 C19.8128266,3.67183735 19.9524941,3.99822289 19.9524941,4.36540663 L19.9524941,14.5241566 Z" id="Shape"></path>
                <path d="M10.4950119,4.42660392 C9.13824228,4.42660392 7.90118765,4.99777861 7.02327791,5.89533886 C6.12541568,6.81329819 5.58669834,8.05764307 5.58669834,9.44478163 C5.58669834,10.8319202 6.14536817,12.0966642 7.02327791,12.9942244 C7.92114014,13.9121837 9.13824228,14.4629593 10.4950119,14.4629593 C11.8517815,14.4629593 13.0888361,13.8917846 13.9667458,12.9942244 C14.8646081,12.0762651 15.4033254,10.8319202 15.4033254,9.44478163 C15.4033254,8.05764307 14.8446556,6.7928991 13.9667458,5.89533886 C13.0888361,4.99777861 11.8517815,4.42660392 10.4950119,4.42660392 Z M13.2085511,12.2394578 C12.5102138,12.9330271 11.5524941,13.3818072 10.4950119,13.3818072 C9.43752969,13.3818072 8.47980998,12.9330271 7.78147268,12.2394578 C7.08313539,11.5254895 6.66413302,10.5463328 6.66413302,9.46518072 C6.66413302,8.38402861 7.10308789,7.40487199 7.78147268,6.69090361 C8.47980998,5.97693524 9.43752969,5.54855422 10.4950119,5.54855422 C11.5524941,5.54855422 12.5102138,5.99733434 13.2085511,6.69090361 C13.9068884,7.40487199 14.3258907,8.38402861 14.3258907,9.46518072 C14.3458432,10.5463328 13.9068884,11.5254895 13.2085511,12.2394578 Z" id="Shape"></path>
                <ellipse id="Oval" cx="17.5980998" cy="5.40576054" rx="1" ry="1"></ellipse>
            </g>
        </g>
    </g>
</svg>

<svg width="21" height="18" xmlns="http://www.w3.org/2000/svg"><g fill="#fff"><path d="M20.292 2.672a2.233 2.233 0 00-1.656-.714h-3.312v-.04c0-.51-.2-1-.54-1.326A1.806 1.806 0 0013.489.04H7.502a1.82 1.82 0 00-1.317.55 1.89 1.89 0 00-.538 1.327v.04H2.354c-.658 0-1.237.266-1.656.714A2.452 2.452 0 000 4.365v10.16c0 .672.26 1.264.698 1.692a2.347 2.347 0 001.656.714h16.282c.658 0 1.237-.265 1.656-.714a2.45 2.45 0 00.698-1.693V4.365c0-.673-.26-1.264-.698-1.693zm-.34 11.852h-.02c0 .367-.14.694-.379.939a1.267 1.267 0 01-.917.387H2.354c-.359 0-.678-.143-.917-.387a1.325 1.325 0 01-.38-.939V4.365c0-.367.14-.693.38-.938.239-.245.558-.388.917-.388h3.851c.3 0 .539-.244.539-.55v-.592a.81.81 0 01.22-.571.775.775 0 01.558-.224h5.966c.22 0 .419.081.559.224a.81.81 0 01.219.571v.592c0 .306.24.55.539.55h3.85c.36 0 .679.143.918.388.24.245.38.571.38.938v10.16z"/><path d="M10.495 4.427a4.864 4.864 0 00-3.472 1.468 5.035 5.035 0 00-1.436 3.55c0 1.387.558 2.652 1.436 3.55a4.816 4.816 0 003.472 1.468 4.864 4.864 0 003.472-1.469 5.035 5.035 0 001.436-3.55 5.084 5.084 0 00-1.436-3.549 4.864 4.864 0 00-3.472-1.468zm2.714 7.812a3.856 3.856 0 01-2.714 1.143 3.856 3.856 0 01-2.714-1.143 3.944 3.944 0 01-1.117-2.774c0-1.081.44-2.06 1.117-2.774a3.773 3.773 0 012.714-1.142c1.057 0 2.015.448 2.714 1.142a3.944 3.944 0 011.117 2.774 3.86 3.86 0 01-1.117 2.774z"/><circle cx="17.598" cy="5.406" r="1"/></g></svg>
